!!! OTL: Berkowitz132
!!! Chapter: 1
!!! Section: I
!!! Page: 30
!!! Mode: 
!!! Encoder: DJB
**kern
*staff1
*I"Piano
=1-
*clefF4
*k[f#c#]
*D:
*M6/8
8.F#\L
16G\K
8A\J
8G\L
8F#\
8E\J
=2
8A\L
8E\
8C#\J
4A\
8G\
=3
8.F#\L
16G\K
8A\J
8B\L
8G\
8D\J
=4
4A\
8F#\
4E\
8A\
=5
8B\L
8d\
8B\J
8A\L
8F#\
8A\J
=6
8.G\L
16A\K
8B\J
4A\
8G\
=7
8F#\L
8E\
8D\J
8C#\L
8E\
8A\J
=8
!!linebreak:original
8G\L
8E\
8F#\J
4.D\
==
*-
